X:1
T:Jack O' Lantern Joe.
T:Jack O' Lantern Joe.
T:Music by JOHN W. BRATTON.
T:Lyric by PAUL WEST.
T:1915
T:1915
T:1915
T:1915
T:1915
C:Music by JOHN W. BRATTON.
Z:Lyric by PAUL WEST.
Z:1915
%%score 1 { 2 | 3 }
L:1/8
Q:1/4=116
M:2/4
K:F
V:1 treble nm="Voice"
V:2 treble nm="Piano"
V:3 bass 
V:1
"^Allegretto" z4 | z4 | z4 | z4 | z4 | z4 | z4 | z4 ||[M:4/4]S!p![Q:1/4=114]"^Moderato" z8 | z8 | %10
w: ||||||||||
w: ||||||||||
w: ||||||||||
 z8 | z2 z2 z z C>C | A>A A>A c>c c>c | B>B F>G A2 A>A | d>d G>G c>c F>F | A>G G>F G2 C>C | %16
w: |When it's|get- ting close to win- ter and Jack|Frost he snoops a- bout, Then it's|fun to take a pump- kin and to|scoop it's in- sides out. Then you|
w: ||||||
w: |Jen- ie|Jones and O- bed John- son, they were|court- in', yes, sir- ee! So I|lit my Jack O' Lan- tern and I|hid be- hind a tree. Then I|
 A>A A>A c>c c>c | B>B F>G A2 A>A | d>c =B>A G>A D>G | C6 C>C | _D>_E F>_A c2 BG | B>G F>G F2 A>F | %22
w: cut a face up- on it with a|grin that makes you shout, And you|stick it on a pole to have some|fun. Now when|ev- 'ry- thing is still, in the|shell you put a light, And you|
w: ||||||
w: wait- ed for their com- ing, for I|knew they could- n't see, And I|heard him call her Hoo- chey- coo- chey-|coo. O, said|he, "My dar- ling Jane, to con-|vince you of my love I would|
 _A>_D D>_E FFcc | B_AG_E F2 EE | c>c c>c c>c =B>c | e>d c>E =B>A ^G>A | c>E =B>A D2 =G2 | G6 z d | %28
w: hear some- bod- y com- in', then you|hide right out- er sight. And you|shove the Jack O' Lan- tern in their|fac- es and in fright They hol- ler|as they turn a- round and|run. Oh|
w: ||||||
w: fight a bear or a- ny- thing on|earth or up a bove." Then I|poked my Jack O' Lan- tern in their|fac- es with a shove, And O- bed|John- son hol- lered as he|flew. *|
"^a llittle faster" c3 d c3 d | Gc^Fc !fermata!G3 z |[M:2/4] GF GA | c4 | GF GA | c4 | dc BA | %35
w: my! Oh dear! What|is that light so clear?|Jack O' Lan- tern|Joe,|Jack 'O Lan- tern|Joe,|Is- n't he a|
w: |||||||
w: |||||||
 AG DG | e2 d2 | c4 | GF GA | c4 | BA GF | d4 | ed ed | fd cA | AG DA | F z z2 | GF GA | c4 | %48
w: naugh- ty boy to|scare us|so?|Jack O' Lan- tern|Joe,|Won- der where he'll|go!|Old Nick fetch him,|Sure to catch him|Jack O' Lan- tern|Joe.|Jack O' Lan- tern|Joe,|
w: |||||||||||||
w: |||||||||||||
 GF GA | c4 | dc BA | AG DG | e2 d2 | c4 | GF GA | c4 | BA GF | d4 | !>!ed !>!ed | !>!fd cA | %60
w: Jack O' Lan- tern|Joe,|Is- n't he a|naught- y boy to|scare us|so?|Jack O' Lan- tern|Joe,|Won- der where he'll|go!|Old Nick fetch him,|Sure to catch him|
w: ||||||||||||
w: ||||||||||||
 AG DG |SS F3 z |] %62
w: Jack O' Lan- tern|Joe.|
w: ||
w: ||
V:2
!f! .[Gg].[Ff] .[Gg].[Aa] | [cc'].c/.d/ .e/.d/.c | .[B_eb].[Aea] .[Geg].[Fef] | [egd']4 | %4
 !>![ebe'].[dd'] !>![e_ae'].[dd'] | !>![faf'].[dd'] [cc'].[Aa] | .[Aa]([Gg] d).[Aa] | %7
 [Ff]2!sfz! !^![fac'e'a'] z ||[M:4/4]!<(! ([F,A,C]F) (D2!<)!!>(! [F,A,D]2) [_E,A,C]2!>)! | %9
!<(! (3([_E,B,C]GE)!<)! (D2!>(! [E,B,D]2) [E,B,C]2!>)! | %10
!<(! ([F,A,C]E!<)! (D2)!>(! [F,A,D]2) [_E,A,C]2!>)! | %11
!<(! (3[E,B,C]GE!<)! D2!>(! [_E,B,D]2 [E,B,C]2!>)! | ([A,CFA]4 [CGc]4 | [B,FB]2 F>G [A,FA]2) A>A | %14
 [DFd]2 ([CEG]2 [CEGc]2) ([CF]2 | [CFA]>)[EG] [=B,EG]>[DF] [CEG]2 C>C | ([A,CFA]4 [CGc]4 | %17
 [B,FB]2) F>G [CFA]2 A>A | [DFAd]>[Cc] [^CD=B]>[CDA] [=CEG]>A [=B,D]>G | [E,G,C]6 C>C | %20
 [_A,_D]>_E F>_A [DGc]2 BG | [C_EB]>B [CEF]>G [CEF]2 _A>F | [F_A]>[B,_D] [B,D]>[C_E] [DF]F[DGc]c | %23
 [C_EB][CE_A][CEG][CE] [CEF]2 EE |!<(! [C_Ec]4 [CFc]2!<)! [=B,E^F=B]>[Cc] | %25
 [EGce]>d c>E ([^CD=B]>A ^G>A | [CEc]>)E =B>A [=B,=D]2 [B,=G]2 | [_B,G]>C C!<(!D EFG!<)!d | %28
!f! c[EB][EB]d c[_EG][EG]d | [=EG]c[^D^F]c !fermata![EG]3 z |[M:2/4] G[A,C=F] G[CFA] | %31
 cC/D/ E/D/C | G[A,CF] G[C^FA] | cC/D/ E/D/C | d[CFAc] B[C^FA] | A[=B,F=G] D[B,FG] | [Ge]2 [FGd]2 | %37
 [EGd]4 | G[A,CF] G[CFA] | cC/D/ E/D/C | G[C_EA] [CEG][CEF] | [DFd]4 | !>!e[FBd] !>!e[F_Ad] | %43
 !>![F=Af]d cA | AG DA | F!ff!!^![cebc'] !^![cebc']!^![cebc'] | .[Gg].[Ff] .[Gg].[Aa] | %47
 [cc'].c/.d/ .e/.d/c | .[Gg].[Ff] .[Gg].[Aa] | [cc'].c/.d/ .e/.d/.c | d[CFAc] B[C^FA] | %51
 A[=B,=FG] D[B,FG] | [Ge]2 [FGd]2 | [EGc]4 | .[Gg].[Ff] .[Gg].[Aa] | [cc'].c/.d/ .e/.d/.c | %56
 .[B_eb].[Aea] .[Geg].[Fef] | [dfd']4 | !>![ebe'][dd'] !>![e_ae'][dd'] | !>![faf'][dd'] [cc'][Aa] | %60
 [Aa][Gg] d[Aa] | [Ff]2!sfz! !^![fac'f'] z |] %62
V:3
 F,,[C,F,A,] C,,[C,F,A,] | G,,[C,E,B,] C,,[C,E,B,] | F,,F, G,A, | [B,,B,]F, D,F, | %4
 !>!B,,[F,B,D] !>!=B,,[F,_A,D] | !>!C,[F,A,C] D,,[D,^F,C] | G,,[F,G,=B,] C,[E,_B,C] | %7
 [F,A,C]2 .[F,,F,] z ||[M:4/4] [F,,C,]2 z2 [F,,C,]2 [^F,,C,]2 | [G,,C,]2 z2 [G,,C,]2 [C,,C,]2 | %10
 [F,,C,]2 z2 [F,,C,]2 [^F,,C,]2 | [G,,C,]2 z2 [G,,C,]2 [C,,C,]2 | ([F,,F,]4 E,4 | %13
 [F,,D,]2 _D,2 C,2) z2 | B,4 A,4 | (G,4 C,2) z2 | ([F,,F,]4 E,4 | [F,,D,]_D,C,) z z4 | %18
 [F,,F,]2 [^F,,^F,]2 [G,,G,]2 [G,,=F,]2 | C,2 (3(G,,^F,,G,,) C,,2 z2 | %20
 [B,,F,]>_E, F,>_A, [C,C]2 B,G, | ([_A,,B,]>G, F,>G, [A,,F,]2) _A,>F, | %22
 ([B,,_A,]>_D, D,>_E, [B,,F,])F,[E,C]C | ([_A,,B,]_A,G,_E, [A,,F,]2) E,E, | [_A,,_E,]4 D,2 E,2 | %25
 ([G,,G,]4 ([G,,^F,]4) | [G,,G,]2) z2 [G,,F,]2 [G,,F,]2 | [C,E,]6 z2 | %28
 z [C,G,][C,G,] z2 [C,^F,][C,F,] z | [C,G,]2 [C,A,]2 !fermata![C,B,]3 z |[M:2/4] F,,C, C,,C, | %31
 G,,[C,E,B,] C,,[C,E,B,] | F,,C, C,,C, | G,,[C,E,B,] C,,[C,E,B,] | F,,C, D,,D, | G,,G, G,,G, | %36
 G,,.G,/.A,/ .=B,/.G,/.A,/.B,/ | .[C,C].[_B,,_B,] .[A,,A,].[G,,G,] | F,,C, C,,C, | %39
 G,,[C,E,B,] C,,[C,E,B,] | F,,F, G,A, | .B,.F, .D,.F, | B,,[F,B,D] =B,,[F,_A,D] | %43
 C,[F,=A,C] D,,[D,^F,C] | G,,[F,G,=B,] C,[E,_B,] | [F,A,][C,,C,] [D,,D,][E,,E,] | %46
 F,,[C,F,A,] C,,[C,F,A,] | G,,[C,E,B,] C,,[C,E,B,] | F,,[C,F,A,] C,,[C,F,A,] | %49
 G,,[D,F,B,] C,,[D,F,B,] | F,,C, D,,D, | G,,G, G,,G, | .G,,.G,/.A,/ .=B,/.G,/.A,/.B,/ | %53
 .[C,C].[_B,,_B,] .[A,,A,].[G,,G,] | F,,[C,F,A,] C,,[C,F,A,] | G,,[C,E,B,] C,,[C,E,B,] | %56
 F,,F, G,A, | [B,,B,]F, D,F, | B,,[F,B,D] =B,,[F,_A,D] | C,[F,A,C] D,,[D,^F,C] | %60
 G,,[F,G,=B,] C,[E,_B,C] | [F,A,C]2 !^![F,,F,] z |] %62

